icons/bell-fill-16.svg

<svg xmlns="http://www.w3.org/2000/svg" width="16" height="16" viewBox="0 0 16 16"><path d="M8 16c.9 0 1.7-.6 1.9-1.5.1-.3-.1-.5-.4-.5h-3c-.3 0-.5.2-.4.5.2.9 1 1.5 1.9 1.5zM3 5c0-2.8 2.2-5 5-5s5 2.2 5 5v3l1.7 2.6c.2.2.3.5.3.8 0 .8-.7 1.5-1.5 1.5h-11c-.8.1-1.5-.6-1.5-1.4 0-.3.1-.6.3-.8L3 8.1V5z"/></svg>

<svg xmlns="http://www.w3.org/2000/svg" width="16" height="16" viewBox="0 0 16 16">
  <defs/>
  <path d="M8,16 C8.9,16 9.7,15.4 9.9,14.5 C10,14.2 9.8,14 9.5,14 L6.5,14 C6.2,14 6,14.2 6.1,14.5 C6.3,15.4 7.1,16 8,16 Z M3,5 C3,2.2 5.2,0 8,0 C10.8,0 13,2.2 13,5 L13,8 L14.7,10.6 C14.9,10.8 15,11.1 15,11.4 C15,12.2 14.3,12.9 13.5,12.9 L2.5,12.9 C1.7,13 1,12.3 1,11.5 C1,11.2 1.1,10.9 1.3,10.7 L3,8.1 L3,5 Z"/>
</svg>
